!!!COM: Vivaldi, Antonio Lucio
!!!CDT: 1678/03/04-1741/08/28
!!!OPR: 12 sonatas for two violins and basso continuo
!!!OTL: Sonata in C major, op. @{OPS}, no. @{ONM} (@{SCT})
!!!OPS: 1
!!!ONM: 3
!!!OMV: 2. Allemanda
!!!SCT: RV 61
!!!SCA: Antonio Vivaldi: Thematisch-systematisches Verzeichnis seiner Werke (Ryom-Verzeichnis)
!!!OMD: Allegro
!!!key: C
**kern	**dynam	**fb	**kern	**dynam	**kern	**dynam
*part3	*	*	*part2	*	*part1	*
*staff3	*	*	*staff2	*	*staff1	*
*ICstr&ICklav	*	*	*ICstr	*	*ICstr	*
*Icello&Icemba	*	*	*Ivioln	*	*Ivioln	*
*	*	*	*I#2	*	*I#1	*
*I"Violoncello\nContinuo	*	*	*I"Violin 2	*	*I"Violin 1	*
*I'bc	*	*	*I'v2	*	*I'v1	*
*>[A,A,B,B]	*>[A,A,B,B]	*>[A,A,B,B]	*>[A,A,B,B]	*>[A,A,B,B]	*>[A,A,B,B]	*>[A,A,B,B]
*>norep[A,B]	*>norep[A,B]	*>norep[A,B]	*>norep[A,B]	*>norep[A,B]	*>norep[A,B]	*>norep[A,B]
*>A	*>A	*>A	*>A	*>A	*>A	*>A
*clefF4	*	*	*clefG2	*	*clefG2	*
*k[]	*	*	*k[]	*	*k[]	*
*C:	*	*	*C:	*	*C:	*
*M4/4	*	*	*M4/4	*	*M4/4	*
*met(c)	*	*	*met(c)	*	*met(c)	*
*MM134	*	*	*MM134	*	*MM134	*
=1	=1	=1	=1	=1	=1	=1
1r	.	.	1r	.	16cc\LL	.
.	.	.	.	.	(16ee\	.
.	.	.	.	.	16dd\	.
.	.	.	.	.	16cc\JJ)	.
.	.	.	.	.	16cc\LL	.
.	.	.	.	.	(16ee\	.
.	.	.	.	.	16dd\	.
.	.	.	.	.	16cc\JJ)	.
.	.	.	.	.	16dd\LL	.
.	.	.	.	.	(16ff\	.
.	.	.	.	.	16ee\	.
.	.	.	.	.	16dd\JJ)	.
.	.	.	.	.	16dd\LL	.
.	.	.	.	.	(16ff\	.
.	.	.	.	.	16ee\	.
.	.	.	.	.	16dd\JJ)	.
=2	=2	=2	=2	=2	=2	=2
1r	.	.	16cc\LL	.	16ee\LL	.
.	.	.	(16ee\	.	(16gg\	.
.	.	.	16dd\	.	16ff\	.
.	.	.	16cc\JJ)	.	16ee\JJ)	.
.	.	.	16cc\LL	.	16ee\LL	.
.	.	.	(16ee\	.	(16gg\	.
.	.	.	16dd\	.	16ff\	.
.	.	.	16cc\JJ)	.	16ee\JJ)	.
.	.	.	16dd\LL	.	16ff\LL	.
.	.	.	(16ff\	.	(16aa\	.
.	.	.	16ee\	.	16gg\	.
.	.	.	16dd\JJ)	.	16ff\JJ)	.
.	.	.	16dd\LL	.	16ff\LL	.
.	.	.	(16ff\	.	(16aa\	.
.	.	.	16ee\	.	16gg\	.
.	.	.	16dd\JJ)	.	16ff\JJ)	.
=3	=3	=3	=3	=3	=3	=3
16C/LL	.	.	16ee\LL	.	8gg\L	.
16E/	.	.	(16gg\	.	.	.
16D/	.	.	16ff\	.	8cc\J	.
16C/JJ	.	.	16ee\JJ)	.	.	.
16C/LL	.	.	16ee\LL	.	2ccc\	.
16E/	.	.	(16gg\	.	.	.
16D/	.	.	16ff\	.	.	.
16C/JJ	.	.	16ee\JJ)	.	.	.
16D\LL	.	7	16ff\LL	.	.	.
16F\	.	.	(16aa\	.	.	.
16E\	.	.	16gg\	.	.	.
16D\JJ	.	.	16ff\JJ)	.	.	.
16D\LL	.	6	16ff\LL	.	4bb\	.
16F\	.	.	(16aa\	.	.	.
16E\	.	.	16gg\	.	.	.
16D\JJ	.	.	16ff\JJ)	.	.	.
!!LO:LB:g=original
=4	=4	=4	=4	=4	=4	=4
16E\LL	.	6	8ee\L	.	4ccc\	.
16G\	.	.	.	.	.	.
16F\	.	.	8cc\J	.	.	.
16E\JJ	.	.	.	.	.	.
16E\LL	.	.	2ccc\	.	8r	.
16G\	.	.	.	.	.	.
16F\	.	.	.	.	8ee\	.
16E\JJ	.	.	.	.	.	.
16F\LL	.	6 5	.	.	2dd\	.
16D\	.	.	.	.	.	.
16E\	.	.	.	.	.	.
16F\JJ	.	.	.	.	.	.
8G/L	.	.	4bb\	.	.	.
8GG/J	.	.	.	.	.	.
=5	=5	=5	=5	=5	=5	=5
4C/	.	.	4ccc\	.	8ee\L	.
.	.	.	.	.	8cc\J	.
4r	.	.	8r	.	2gg\	.
.	.	.	8ee\	.	.	.
8r	.	.	4aa\	.	.	.
8c\	.	6 5	.	.	.	.
4d\	.	.	8r	.	[4ff\	.
.	.	.	8dd\	.	.	.
=6	=6	=6	=6	=6	=6	=6
8r	.	.	4gg\	.	4ff\]	.
8B\	.	6 5	.	.	.	.
4c\	.	.	8r	.	2ee\	.
.	.	.	8cc\	.	.	.
8r	.	.	4ff\	.	.	.
8A\	.	6 5	.	.	.	.
4B\	.	.	8r	.	[4dd\	.
.	.	.	8gg\	.	.	.
=7	=7	=7	=7	=7	=7	=7
8r	.	.	4ee\	.	4dd\]	.
8G\	.	6 5	.	.	.	.
4A\	.	.	8r	.	2cc\	.
.	.	.	8ff\	.	.	.
8r	.	.	2dd\	.	.	.
8F\	.	6 5	.	.	.	.
8G/L	.	.	.	.	4b\	.
8GG/J	.	.	.	.	.	.
=8	=8	=8	=8	=8	=8	=8
4C/	.	.	4cc\	.	8cc\L	.
.	.	.	.	.	8dd\J	.
4r	.	.	4r	.	8ee\L	.
.	.	.	.	.	16dd\L	.
.	.	.	.	.	16cc\JJ	.
2r	.	.	8g/L	.	4.gg\	.
.	.	.	8a/J	.	.	.
.	.	.	8b/L	.	.	.
.	.	.	16a/L	.	8gg\	.
.	.	.	16g/JJ	.	.	.
!!LO:LB:g=original
=9	=9	=9	=9	=9	=9	=9
8C/L	.	.	2.cc\	.	8ee\L	.
8D/J	.	#	.	.	8ff#y\J	.
8E/L	.	.	.	.	8gg\L	.
16D/L	.	.	.	.	16ff#X\L	.
16C/JJ	.	.	.	.	16ee\JJ	.
8D/L	.	7 #	.	.	4ff#X\	.
16C/L	.	.	.	.	.	.
16D/JJ	.	.	.	.	.	.
8E/L	.	5	4b\	.	[4gg\	.
8BB/J	.	.	.	.	.	.
=10	=10	=10	=10	=10	=10	=10
8C/L	.	6 5	2a/	.	4gg\]	.
8AA/J	.	.	.	.	.	.
8D/L	.	#	.	.	4ff#y\	.
8DD/J	.	.	.	.	.	.
4GG/	.	.	8b/L	p	4gg\	p
.	.	.	8g/J	.	.	.
4r	.	.	[4dd\	.	8r	.
.	.	.	.	.	8b\	.
=11	=11	=11	=11	=11	=11	=11
8r	.	.	4dd\]	.	4ee\	.
8G\	p	6 5	.	.	.	.
4A\	.	.	2cc\	.	8r	.
.	.	.	.	.	8a/	.
8r	.	.	.	.	4dd\	.
8F#X\	.	6 5	.	.	.	.
4G\	.	.	[4b\	.	8r	.
.	.	.	.	.	8ee\	.
=12	=12	=12	=12	=12	=12	=12
8r	.	.	4b\]	.	2.cc\	.
8E\	.	6 5	.	.	.	.
8C/L	.	6	8a/L	.	.	.
8AA/J	.	.	8g/J	.	.	.
4D\	.	7 #	4f#X/	.	.	.
8E/L	.	5	[4g/	.	4b\	.
8BB/J	.	.	.	.	.	.
=13	=13	=13	=13	=13	=13	=13
8C/L	.	6 5	4g/]	.	2a/	.
8AA/J	.	.	.	.	.	.
8D/L	.	#	4f#X/	.	.	.
8DD/J	.	.	.	.	.	.
2GG/	.	.	2g/	.	2g/	.
!!LO:LB:g=original
=14:|!|:	=14:|!|:	=14:|!|:	=14:|!|:	=14:|!|:	=14:|!|:	=14:|!|:
*>B	*>B	*>B	*>B	*>B	*>B	*>B
1r	.	.	1r	.	16g/LL	.
.	.	.	.	.	(16b/	.
.	.	.	.	.	16a/	.
.	.	.	.	.	16g/JJ)	.
.	.	.	.	.	16g/LL	.
.	.	.	.	.	(16b/	.
.	.	.	.	.	16a/	.
.	.	.	.	.	16g/JJ)	.
.	.	.	.	.	16a/LL	.
.	.	.	.	.	(16cc/	.
.	.	.	.	.	16b/	.
.	.	.	.	.	16a/JJ)	.
.	.	.	.	.	16a/LL	.
.	.	.	.	.	(16cc/	.
.	.	.	.	.	16b/	.
.	.	.	.	.	16a/JJ)	.
=15	=15	=15	=15	=15	=15	=15
1r	.	.	16g/LL	.	16b\LL	.
.	.	.	(16b/	.	(16dd\	.
.	.	.	16a/	.	16cc\	.
.	.	.	16g/JJ)	.	16b\JJ)	.
.	.	.	16g/LL	.	16b\LL	.
.	.	.	(16b/	.	(16dd\	.
.	.	.	16a/	.	16cc\	.
.	.	.	16g/JJ)	.	16b\JJ)	.
.	.	.	16a/LL	.	16cc\LL	.
.	.	.	(16cc/	.	(16ee\	.
.	.	.	16b/	.	16dd\	.
.	.	.	16a/JJ)	.	16cc\JJ)	.
.	.	.	16a/LL	.	16cc\LL	.
.	.	.	(16cc/	.	(16ee\	.
.	.	.	16b/	.	16dd\	.
.	.	.	16a/JJ)	.	16cc\JJ)	.
=16	=16	=16	=16	=16	=16	=16
16G\LL	.	.	16b\LL	.	8dd\L	.
16B\	.	.	(16dd\	.	.	.
16A\	.	.	16cc\	.	8g\J	.
16G\JJ	.	.	16b\JJ)	.	.	.
16G\LL	.	.	16b\LL	.	2gg\	.
16B\	.	.	(16dd\	.	.	.
16A\	.	.	16cc\	.	.	.
16G\JJ	.	.	16b\JJ)	.	.	.
16A\LL	.	7	16cc\LL	.	.	.
16c\	.	.	(16ee\	.	.	.
16B\	.	.	16dd\	.	.	.
16A\JJ	.	.	16cc\JJ)	.	.	.
16A\LL	.	6#/	16cc\LL	.	4ff#X\	.
16c\	.	.	(16ee\	.	.	.
16B\	.	.	16dd\	.	.	.
16A\JJ	.	.	16cc\JJ)	.	.	.
!!LO:PB:g=original
=17	=17	=17	=17	=17	=17	=17
16B\LL	.	6	8b/L	.	4gg\	.
16d\	.	.	.	.	.	.
16c\	.	.	8g/J	.	.	.
16B\JJ	.	.	.	.	.	.
16B\LL	.	.	2gg\	.	8r	.
16d\	.	.	.	.	.	.
16c\	.	.	.	.	8bb\	.
16B\JJ	.	.	.	.	.	.
16c\LL	.	6 5	.	.	16aa\LL	.
16e\	.	.	.	.	(16ccc\	.
16d\	.	.	.	.	16bb\	.
16c\JJ	.	.	.	.	16aa\JJ)	.
16d\LL	.	.	[4ffn\	.	16aa\LL	.
16e\	.	.	.	.	(16ccc\	.
16d\	.	.	.	.	16bb\	.
16c\JJ	.	.	.	.	16aa\JJ)	.
=18	=18	=18	=18	=18	=18	=18
8B\L	.	6 5	4ff\]	.	16gg\LL	.
.	.	.	.	.	(16bb\	.
8G\J	.	.	.	.	16aa\	.
.	.	.	.	.	16gg\JJ)	.
8r	.	.	2ee\	.	16gg\LL	.
.	.	.	.	.	(16bb\	.
8c\	.	.	.	.	16aa\	.
.	.	.	.	.	16gg\JJ)	.
4A\	.	6 5	.	.	16ff\LL	.
.	.	.	.	.	(16aa\	.
.	.	.	.	.	16gg\	.
.	.	.	.	.	16ff\JJ)	.
8r	.	.	[4dd\	.	16ff\LL	.
.	.	.	.	.	(16aa\	.
8B\	.	.	.	.	16gg\	.
.	.	.	.	.	16ff\JJ)	.
=19	=19	=19	=19	=19	=19	=19
4G\	.	6 5	4dd\]	.	16ee\LL	.
.	.	.	.	.	(16gg\	.
.	.	.	.	.	16ff\	.
.	.	.	.	.	16ee\JJ)	.
8r	.	.	2cc\	.	16ee\LL	.
.	.	.	.	.	(16gg\	.
8A\	.	.	.	.	16ff\	.
.	.	.	.	.	16ee\JJ)	.
4F\	.	6 5	.	.	16dd\LL	.
.	.	.	.	.	(16ff\	.
.	.	.	.	.	16ee\	.
.	.	.	.	.	16dd\JJ)	.
8r	.	.	[4b\	.	16dd\LL	.
.	.	.	.	.	(16ff\	.
8G\	.	.	.	.	16ee\	.
.	.	.	.	.	16dd\JJ)	.
=20	=20	=20	=20	=20	=20	=20
4E\	.	6 5	4b\]	.	16cc\LL	.
.	.	.	.	.	(16ee\	.
.	.	.	.	.	16dd\	.
.	.	.	.	.	16cc\JJ)	.
8r	.	.	2a/	.	16cc\LL	.
.	.	.	.	.	(16ee\	.
8F\	.	.	.	.	16dd\	.
.	.	.	.	.	16cc\JJ)	.
8D/L	.	6 5	.	.	16b\LL	.
.	.	.	.	.	(16dd\	.
8BB/J	.	.	.	.	16cc\	.
.	.	.	.	.	16b\JJ)	.
8E/L	.	#	4g#X/	.	16b\LL	.
.	.	.	.	.	(16dd\	.
8EE/J	.	.	.	.	16cc\	.
.	.	.	.	.	16b\JJ)	.
!!LO:LB:g=original
=21	=21	=21	=21	=21	=21	=21
4AA/	.	.	4a/	.	8a\L	.
.	.	.	.	.	16ee\L	.
.	.	.	.	.	16dd\JJ	.
4r	.	.	4r	.	8cc\L	.
.	.	.	.	.	16b\L	.
.	.	.	.	.	16a\JJ	.
8r	.	.	8r	.	[2ff\	.
16A\LL	.	.	16cc\LL	.	.	.
16G\JJ	.	.	16b\JJ	.	.	.
8F\L	.	.	8a\L	.	.	.
16E\L	.	.	16cc\L	.	.	.
16D\JJ	.	.	16dd\JJ	.	.	.
=22	=22	=22	=22	=22	=22	=22
[2G\	.	7	[2b\	.	8ff\L]	.
.	.	.	.	.	16ff\L	.
.	.	.	.	.	16ee\JJ	.
.	.	.	.	.	8dd\L	.
.	.	.	.	.	16cc\L	.
.	.	.	.	.	16b\JJ	.
8G\L]	.	.	8b\L]	.	[2gg\	.
16B\L	.	.	16dd\L	.	.	.
16A\JJ	.	.	16cc\JJ	.	.	.
8G\L	.	.	8b/L	.	.	.
16F\L	.	.	16a/L	.	.	.
16E\JJ	.	.	16g/JJ	.	.	.
=23	=23	=23	=23	=23	=23	=23
[2c\	.	5	[2ee\	.	8gg\L]	.
.	.	.	.	.	16gg\L	.
.	.	.	.	.	16ff\JJ	.
.	.	.	.	.	8ee\L	.
.	.	.	.	.	16dd\L	.
.	.	.	.	.	16cc\JJ	.
8c\L]	.	6	8ee\L]	.	[2aa\	.
16c\L	.	.	16ee\L	.	.	.
16B\JJ	.	.	16dd\JJ	.	.	.
8A\L	.	.	8cc\L	.	.	.
16G\L	.	.	16ee\L	.	.	.
16F#X\JJ	.	.	16aa\JJ	.	.	.
=24	=24	=24	=24	=24	=24	=24
8B\L	.	7 #	4dd#X\	.	4aa\]	.
16A\L	.	.	.	.	.	.
16B\JJ	.	.	.	.	.	.
8c\L	.	5	2ee\	.	4gg\	.
8G\J	.	.	.	.	.	.
8A\L	.	6#/ 5	.	.	2ff#X\	.
8F#X\	.	.	.	.	.	.
8B\	.	#	4dd#X\	.	.	.
8BB\J	.	.	.	.	.	.
!!LO:LB:g=original
=25	=25	=25	=25	=25	=25	=25
4E\	.	.	4ee\	.	8ee\L	.
.	.	.	.	.	(16gg\L	.
.	.	.	.	.	16ffn\JJ	.
4r	.	.	4r	.	16ee\LL	.
.	.	.	.	.	16dd\	.
.	.	.	.	.	16cc#y\	.
.	.	.	.	.	16b\JJ)	.
8r	.	.	8r	.	8a\L	.
8A\	.	#	8aa\	.	8cc#X\	.
8B-X\L	.	.	8ff\L	.	8dd\	.
8F\J	.	6	8dd\J	.	8aa\J	.
=26	=26	=26	=26	=26	=26	=26
8G\L	.	6 5 -	4dd\	.	2ee\	.
8E\	.	.	.	.	.	.
8A\	.	#	4cc#X\	.	.	.
8AA\J	.	.	.	.	.	.
4D\	.	.	4dd\	.	8dd\L	.
.	.	.	.	.	(16ff\L	.
.	.	.	.	.	16ee\JJ	.
4r	.	.	4r	.	16dd\LL	.
.	.	.	.	.	16cc\	.
.	.	.	.	.	16b\	.
.	.	.	.	.	16a\JJ)	.
=27	=27	=27	=27	=27	=27	=27
8r	.	.	8r	.	8g\L	.
8G\	.	.	8gg\	.	8b\	.
8A\L	.	.	8ee\L	.	8cc\	.
8E\J	.	6	8cc\J	.	8gg\J	.
16F\LL	.	6 5	4cc\	.	[2dd\	.
16E\	.	.	.	.	.	.
16F\	.	.	.	.	.	.
16D\JJ	.	.	.	.	.	.
16G\LL	.	.	4b\	.	.	.
16F\	.	.	.	.	.	.
16E\	.	.	.	.	.	.
16D\JJ	.	.	.	.	.	.
=28	=28	=28	=28	=28	=28	=28
16C/LL	.	9	2.ee\	.	4dd\]	.
16E/	.	.	.	.	.	.
16D/	.	.	.	.	.	.
16C/JJ	.	.	.	.	.	.
16C/LL	.	8	.	.	4cc\	.
16E/	.	.	.	.	.	.
16D/	.	.	.	.	.	.
16C/JJ	.	.	.	.	.	.
16D\LL	.	9	.	.	[2ff\	.
16F\	.	.	.	.	.	.
16E\	.	.	.	.	.	.
16D\JJ	.	.	.	.	.	.
16D\LL	.	8	4dd\	.	.	.
16F\	.	.	.	.	.	.
16E\	.	.	.	.	.	.
16D\JJ	.	.	.	.	.	.
!!LO:LB:g=original
=29	=29	=29	=29	=29	=29	=29
16E\LL	.	9	2gg\	.	4ff\]	.
16G\	.	.	.	.	.	.
16F\	.	.	.	.	.	.
16E\JJ	.	.	.	.	.	.
16E\LL	.	8	.	.	[4ee\	.
16G\	.	.	.	.	.	.
16F\	.	.	.	.	.	.
16E\JJ	.	.	.	.	.	.
16F\LL	.	7	4.aa\	.	8ee\L]	.
16A\	.	.	.	.	.	.
16G\	.	.	.	.	8aa\J	.
16F\JJ	.	.	.	.	.	.
16F\LL	.	6	.	.	[4dd\	.
16A\	.	.	.	.	.	.
16G\	.	.	8aa\	.	.	.
16F\JJ	.	.	.	.	.	.
=30	=30	=30	=30	=30	=30	=30
16G\LL	.	.	8b\L	.	8dd\L]	.
16B\	.	.	.	.	.	.
16A\	.	.	16cc\L	.	8gg\	.
16G\JJ	.	.	16dd\JJ	.	.	.
16G\LL	.	.	[4g/	.	8b\	.
16B\	.	.	.	.	.	.
16A\	.	.	.	.	8dd\J	.
16G\JJ	.	.	.	.	.	.
8c\L	.	.	8g/]	.	4ee\	.
16E\L	.	6	4cc\	.	.	.
16F\JJ	.	.	.	.	.	.
8G/L	.	5 4	.	.	4dd\T	.
8GG/J	.	3	8b\	.	.	.
=31	=31	=31	=31	=31	=31	=31
4C/	.	.	4cc\	.	16cc\LL	.
.	.	.	.	.	(16ee\	.
.	.	.	.	.	16dd\	.
.	.	.	.	.	16cc\JJ)	.
4r	.	.	4r	.	16cc\LL	.
.	.	.	.	.	(16ee\	.
.	.	.	.	.	16dd\	.
.	.	.	.	.	16cc\JJ)	.
2r	.	.	2r	.	16dd\LL	.
.	.	.	.	.	(16ff\	.
.	.	.	.	.	16ee\	.
.	.	.	.	.	16dd\JJ)	.
.	.	.	.	.	16dd\LL	.
.	.	.	.	.	(16ff\	.
.	.	.	.	.	16ee\	.
.	.	.	.	.	16dd\JJ)	.
=32	=32	=32	=32	=32	=32	=32
1r	.	.	16cc\LL	.	16ee\LL	.
.	.	.	(16ee\	.	(16gg\	.
.	.	.	16dd\	.	16ff\	.
.	.	.	16cc\JJ)	.	16ee\JJ)	.
.	.	.	16cc\LL	.	16ee\LL	.
.	.	.	(16ee\	.	(16gg\	.
.	.	.	16dd\	.	16ff\	.
.	.	.	16cc\JJ)	.	16ee\JJ)	.
.	.	.	16dd\LL	.	16ff\LL	.
.	.	.	(16ff\	.	(16aa\	.
.	.	.	16ee\	.	16gg\	.
.	.	.	16dd\JJ)	.	16ff\JJ)	.
.	.	.	16dd\LL	.	16ff\LL	.
.	.	.	(16ff\	.	(16aa\	.
.	.	.	16ee\	.	16gg\	.
.	.	.	16dd\JJ)	.	16ff\JJ)	.
!!LO:PB:g=original
=33	=33	=33	=33	=33	=33	=33
2r	.	.	4ee\	.	8gg\L	.
.	.	.	.	.	8cc\J	.
.	.	.	8r	.	2gg\	.
.	.	.	8ee\	.	.	.
8r	.	.	4aa\	.	.	.
8c\	.	6 5	.	.	.	.
4d\	.	.	8r	.	[4ff\	.
.	.	.	8dd\	.	.	.
=34	=34	=34	=34	=34	=34	=34
8r	.	.	4gg\	.	4ff\]	.
8B\	.	6 5	.	.	.	.
4c\	.	.	8r	.	2ee\	.
.	.	.	8cc\	.	.	.
8r	.	.	4ff\	.	.	.
8A\	.	6 5	.	.	.	.
4B\	.	.	8r	.	[4dd\	.
.	.	.	8gg\	.	.	.
=35	=35	=35	=35	=35	=35	=35
8r	.	.	4ee\	.	4dd\]	.
8G\	.	6 5	.	.	.	.
4A\	.	.	8r	.	2cc\	.
.	.	.	8ff\	.	.	.
8r	.	.	2dd\	.	.	.
8F\	.	6 5	.	.	.	.
8G/L	.	.	.	.	4b\t	.
8GG/J	.	.	.	.	.	.
=36	=36	=36	=36	=36	=36	=36
16C/LL	.	.	8cc/L	.	4.cc\	.
16E/	.	.	.	.	.	.
16D/	.	.	8c/J	.	.	.
16C/JJ	.	.	.	.	.	.
16C/LL	.	.	[4g/	.	.	.
16E/	.	.	.	.	.	.
16D/	.	.	.	.	8b-X\	.
16C/JJ	.	.	.	.	.	.
16F\LL	.	9	8g/L]	.	4.a/	.
16A\	.	.	.	.	.	.
16G\	.	.	8c/J	.	.	.
16F\JJ	.	.	.	.	.	.
16F\LL	.	8	[4f/	.	.	.
16A\	.	.	.	.	.	.
16G\	.	.	.	.	8dd\	.
16F\JJ	.	.	.	.	.	.
=37	=37	=37	=37	=37	=37	=37
8G/L	.	7	8f/L]	.	8b\	.
8C/	.	.	8e/J	.	4cc\	.
8G/	.	5 4	4d/	.	.	.
8GG/J	.	3	.	.	8b\	.
2C/	.	.	2e/	.	2cc\	.
=:|!	=:|!	=:|!	=:|!	=:|!	=:|!	=:|!
*-	*-	*-	*-	*-	*-	*-
!!!SMS: RV 61 / Estienne Roger (No. 363), Amsterdam [facs.]
!!!ENC: Fran Bennion   rev. 05/12/21 E Correia
!!!END: 2004/09/28
!!!ONB: Converted from MuseData with musedata2hum on Sat May 11 12:01:54 2024
!!!YEM: (C) 2004, 2019 Center for Computer Assisted Research in the Humanities
!!!system-decoration: [(s1,s2,s3)]
!!!URL-info: https://wiki.ccarh.org/wiki/MuseData:_Antonio_Vivaldi#Op._1:_Suonate_da_camera_a_tr.C3.A8.2C_due_violini_e_violone_o_cembalo Information about Vivaldi Op. 1 on the CCARH wiki
!!!URL-pdf: https://pdf.musedata.org/vivaldi-op01-no03.pdf#page=2 MuseData edition
!!!URL-pdf: https://s9.imslp.org/files/imglnks/usimg/1/18/IMSLP280399-PMLP10351-Vivaldi_Sonatas_Op_1_-_Violino_Primo.pdf#page=6 Violino primo part, Amsterdam: Estienne Roger, n.d.(ca.1723). Plate 363.
!!!URL-pdf: https://s9.imslp.org/files/imglnks/usimg/d/d5/IMSLP280400-PMLP10351-Vivaldi_Sonatas_Op_1_-_Violino_Secondo.pdf#page=5 Violino secondo part, Amsterdam: Estienne Roger, n.d.(ca.1723). Plate 363.
!!!URL-pdf: https://s9.imslp.org/files/imglnks/usimg/8/89/IMSLP280401-PMLP10351-Vivaldi_Sonatas_Op_1_-_Organo_e_Violoncello.pdf#page=5 Organo e Violoncello parts, Amsterdam: Estienne Roger, n.d.(ca.1723). Plate 363.
!!!URL-youtube: https://www.youtube.com/watch?v=P5HHPe_W6Uo&t=3603s L'Arte dell'Arco
!!!title: @{OTL}, mov. @{OMV}
!!!filter-vcross: vcross
!!!EEV: 2024/05/11
!!!source-file: https://bitbucket.org/musedata/vivaldi/src/master/roger/op1/no03/stage2/02/01
!!!source-file: https://bitbucket.org/musedata/vivaldi/src/master/roger/op1/no03/stage2/02/02
!!!source-file: https://bitbucket.org/musedata/vivaldi/src/master/roger/op1/no03/stage2/02/03
!!!source-file: https://bitbucket.org/musedata/vivaldi/src/master/roger/op1/no03/stage2/02/04
